X: 1
T: Polsch
C: Rasmus Storm (1760)
R: pols
Z: 2009 John Chambers <jc:trillian.mit.edu>
S: handwritten page from Spillemandsorkestret
M: 3/4
L: 1/8
K: D
V: 1
|: "D"(3dcB A2 "A"c>e | "D"(3dcB A2 "A"c>e | "D"d>e (3fgf "A"(3ece | "D"d2 d4 :|
|: "D"f>f f>f f>a | "A7"g>f f>e e2 | "D"f>e d>d d>f | "A7"e>d d>c c>e |
|  "D"(3dcB A2 "A"c>e | "D"(3dcB A2 "A"c>e | "D"d>e (3fgf "A"(3ece | "D"d2 d4 :|
V: 2
|: (3[AF][AE][AD] [D2A,2] [AE]>[AE] | (3[AF][AE][AD] [D2A,2] [AE]>[AE] \
|  [AF]>A (3ded (3[AE][AE][AE] | [A2F2] [F4A,4] :|
|: [dD]>[dD] [dD]>[dD] [dD]>[fA] | [eA]>d [ed]>[ec] [e2c2] \
|  d>A [AF]>[AF] [AF]>[AF] | [AG]>[AF] [AF]>[AE] [A2E2] |
|  (3[AF][AE][AD] [D2A,2] [AE]>[AE] | (3[AF][AE][AD] [D2A,2] [AE]>[AE] \
|  [AF]>A (3ded (3[AE][AE][AE] | [A2F2] [F4A,4] :|
